src/assets/img/creator/type-cards/svg/gamer.svg

<svg fill="none" height="150" viewBox="0 0 150 150" width="150" xmlns="http://www.w3.org/2000/svg"><path d="m0 0h150v150h-150z"/><g stroke="#fcfbff" stroke-width="7"><path d="m62.7087 89.7507v7.3749c0 4.5644-1.8131 8.9414-5.0402 12.1684-3.2272 3.227-7.6042 5.04-12.1682 5.04-4.5639 0-8.9409-1.813-12.1681-5.04s-5.0402-7.604-5.0402-12.1684v-34.4166m59 27.0417v7.3749c0 4.5644 1.813 8.9414 5.0402 12.1684s7.6042 5.04 12.1678 5.04c4.564 0 8.941-1.813 12.168-5.04 3.228-3.227 5.041-7.604 5.041-12.1684v-34.4166" stroke-linecap="round" stroke-linejoin="round"/><path d="m94.667 35.667h-39.3333c-14.9347 0-27.0417 12.107-27.0417 27.0417s12.107 27.0416 27.0417 27.0416h39.3333c14.935 0 27.042-12.1069 27.042-27.0416s-12.107-27.0417-27.042-27.0417z"/><path d="m67.6257 62.7083h-19.6667m9.8333-9.8333v19.6667" stroke-linecap="round" stroke-linejoin="round"/></g><g fill="#fcfbff"><path d="m104.5 57.7917c0-2.7154-2.201-4.9167-4.9163-4.9167-2.7154 0-4.9167 2.2013-4.9167 4.9167s2.2013 4.9166 4.9167 4.9166c2.7153 0 4.9163-2.2012 4.9163-4.9166z"/><path d="m94.6673 70.0837c0-2.7154-2.2012-4.9167-4.9166-4.9167s-4.9167 2.2013-4.9167 4.9167 2.2013 4.9166 4.9167 4.9166 4.9166-2.2012 4.9166-4.9166z"/></g></svg>

<svg width="150" height="150" viewBox="0 0 150 150" fill="none" xmlns="http://www.w3.org/2000/svg">
<rect width="150" height="150" />
<g id="gamer">
<g id="Group">
<path id="Vector" d="M62.7087 89.7507V97.1256C62.7087 101.69 60.8956 106.067 57.6685 109.294C54.4413 112.521 50.0643 114.334 45.5003 114.334C40.9364 114.334 36.5594 112.521 33.3322 109.294C30.105 106.067 28.292 101.69 28.292 97.1256V62.709M87.292 89.7507V97.1256C87.292 101.69 89.105 106.067 92.3322 109.294C95.5594 112.521 99.9364 114.334 104.5 114.334C109.064 114.334 113.441 112.521 116.668 109.294C119.896 106.067 121.709 101.69 121.709 97.1256V62.709" stroke="#FCFBFF" stroke-width="7" stroke-linecap="round" stroke-linejoin="round"/>
<path id="Vector_2" d="M94.667 35.667H55.3337C40.399 35.667 28.292 47.774 28.292 62.7087C28.292 77.6434 40.399 89.7503 55.3337 89.7503H94.667C109.602 89.7503 121.709 77.6434 121.709 62.7087C121.709 47.774 109.602 35.667 94.667 35.667Z" stroke="#FCFBFF" stroke-width="7"/>
<path id="Vector_3" d="M67.6257 62.7083H47.959M57.7923 52.875V72.5417" stroke="#FCFBFF" stroke-width="7" stroke-linecap="round" stroke-linejoin="round"/>
<path id="Vector_4" d="M104.5 57.7917C104.5 55.0763 102.299 52.875 99.5837 52.875C96.8683 52.875 94.667 55.0763 94.667 57.7917C94.667 60.5071 96.8683 62.7083 99.5837 62.7083C102.299 62.7083 104.5 60.5071 104.5 57.7917Z" fill="#FCFBFF"/>
<path id="Vector_5" d="M94.6673 70.0837C94.6673 67.3683 92.4661 65.167 89.7507 65.167C87.0353 65.167 84.834 67.3683 84.834 70.0837C84.834 72.7991 87.0353 75.0003 89.7507 75.0003C92.4661 75.0003 94.6673 72.7991 94.6673 70.0837Z" fill="#FCFBFF"/>
</g>
</g>
</svg>
